source/img/services/services-nav/site-icon-active.svg

<svg width="32" height="32" viewBox="0 0 32 32" fill="none" xmlns="http://www.w3.org/2000/svg">
<path d="M13.374 26.2978L13.6137 23.7815H18.167L18.4066 26.2978H13.374Z" fill="url(#paint0_linear)"/>
<path d="M2.67969 21.2649H28.4718V23.7812H2.67969V21.2649Z" fill="url(#paint1_linear)"/>
<path fill-rule="evenodd" clip-rule="evenodd" d="M3.10986 6.27037C2.92766 6.27037 2.77996 6.41875 2.77996 6.60179V21.1311H28.3719V6.60179C28.3719 6.41875 28.2242 6.27037 28.042 6.27037H3.10986ZM3.10986 5.53784H28.042C28.6269 5.53784 29.1011 6.01419 29.1011 6.60179V23.3462C29.1011 23.9338 28.6269 24.4101 28.042 24.4101H7.67959C7.47823 24.4101 7.315 24.2461 7.315 24.0439C7.315 23.8416 7.47823 23.6776 7.67959 23.6776H28.042C28.2242 23.6776 28.3719 23.5292 28.3719 23.3462V21.8636H2.77996V23.3462C2.77996 23.5292 2.92766 23.6776 3.10986 23.6776H5.83711C6.03847 23.6776 6.2017 23.8416 6.2017 24.0439C6.2017 24.2461 6.03847 24.4101 5.83711 24.4101H3.10986C2.52495 24.4101 2.05078 23.9338 2.05078 23.3462V6.60179C2.05078 6.36171 2.12994 6.1402 2.26346 5.96217C2.33418 5.86786 2.42017 5.78576 2.51772 5.71955C2.68675 5.60483 2.89052 5.53784 3.10986 5.53784Z" fill="#0A3D76"/>
<path fill-rule="evenodd" clip-rule="evenodd" d="M13.0175 23.7815H18.7634L18.8568 24.8591C18.8725 25.0409 18.7194 25.1997 18.5147 25.2137C18.3101 25.2277 18.1314 25.0916 18.1157 24.9098L18.0751 24.442H13.7058L13.5478 26.2664H18.2332L18.2065 25.959C18.1908 25.7772 18.3439 25.6184 18.5486 25.6044C18.7532 25.5904 18.9319 25.7265 18.9477 25.9083L19.0359 26.9269H12.7451L13.0175 23.7815Z" fill="#0A3D76"/>
<path fill-rule="evenodd" clip-rule="evenodd" d="M11.4868 26.6121C11.4868 26.4384 11.6516 26.2976 11.855 26.2976H19.2967C19.5 26.2976 19.6648 26.4384 19.6648 26.6121C19.6648 26.7859 19.5 26.9267 19.2967 26.9267H11.855C11.6516 26.9267 11.4868 26.7859 11.4868 26.6121Z" fill="#0A3D76"/>
<defs>
<linearGradient id="paint0_linear" x1="18.2515" y1="25.0396" x2="13.5295" y2="24.8369" gradientUnits="userSpaceOnUse">
<stop stop-color="#A62E41"/>
<stop offset="1" stop-color="#E13152"/>
</linearGradient>
<linearGradient id="paint1_linear" x1="27.6768" y1="22.523" x2="4.55175" y2="17.4337" gradientUnits="userSpaceOnUse">
<stop stop-color="#A62E41"/>
<stop offset="1" stop-color="#E13152"/>
</linearGradient>
</defs>
</svg>

<svg width="32" height="32" fill="none" xmlns="http://www.w3.org/2000/svg"><path d="M13.374 26.298l.24-2.516h4.553l.24 2.516h-5.033z" fill="url(#paint0_linear)"/><path d="M2.68 21.265h25.792v2.516H2.68v-2.516z" fill="url(#paint1_linear)"/><path fill-rule="evenodd" clip-rule="evenodd" d="M3.11 6.27a.33.33 0 00-.33.332v14.53h25.592V6.601a.33.33 0 00-.33-.332H3.11zm0-.732h24.932c.585 0 1.06.476 1.06 1.064v16.744c0 .588-.475 1.064-1.06 1.064H7.68a.365.365 0 010-.732h20.362a.33.33 0 00.33-.332v-1.482H2.78v1.482a.33.33 0 00.33.332h2.727a.365.365 0 010 .732H3.11c-.585 0-1.06-.476-1.06-1.064V6.602a1.062 1.062 0 011.06-1.064z" fill="#0A3D76"/><path fill-rule="evenodd" clip-rule="evenodd" d="M13.018 23.782h5.745l.094 1.077c.015.182-.138.34-.342.355-.205.014-.384-.122-.4-.304l-.04-.468h-4.37l-.157 1.824h4.685l-.027-.307c-.015-.182.138-.34.343-.355.204-.014.383.123.399.304l.088 1.019h-6.29l.271-3.145z" fill="#0A3D76"/><path fill-rule="evenodd" clip-rule="evenodd" d="M11.487 26.612c0-.174.165-.314.368-.314h7.442c.203 0 .368.14.368.314s-.165.315-.368.315h-7.442c-.203 0-.368-.141-.368-.315z" fill="#0A3D76"/><defs><linearGradient id="paint0_linear" x1="18.252" y1="25.04" x2="13.53" y2="24.837" gradientUnits="userSpaceOnUse"><stop stop-color="#A62E41"/><stop offset="1" stop-color="#E13152"/></linearGradient><linearGradient id="paint1_linear" x1="27.677" y1="22.523" x2="4.552" y2="17.434" gradientUnits="userSpaceOnUse"><stop stop-color="#A62E41"/><stop offset="1" stop-color="#E13152"/></linearGradient></defs></svg>
